Faba/22x22/apps/spotify-panel.svg

<?xml version="1.0" encoding="UTF-8" standalone="no"?>
<svg
   xmlns:dc="http://purl.org/dc/elements/1.1/"
   xmlns:cc="http://creativecommons.org/ns#"
   xmlns:rdf="http://www.w3.org/1999/02/22-rdf-syntax-ns#"
   xmlns:svg="http://www.w3.org/2000/svg"
   xmlns="http://www.w3.org/2000/svg"
   xmlns:sodipodi="http://sodipodi.sourceforge.net/DTD/sodipodi-0.dtd"
   xmlns:inkscape="http://www.inkscape.org/namespaces/inkscape"
   height="22"
   width="22"
   version="1.1"
   id="svg2"
   inkscape:version="0.48.4 r9939"
   sodipodi:docname="spotify.svg">
  <defs
     id="defs9" />
  <sodipodi:namedview
     pagecolor="#ffffff"
     bordercolor="#666666"
     borderopacity="1"
     objecttolerance="10"
     gridtolerance="10"
     guidetolerance="10"
     inkscape:pageopacity="0"
     inkscape:pageshadow="2"
     inkscape:window-width="1364"
     inkscape:window-height="700"
     id="namedview7"
     showgrid="false"
     inkscape:zoom="1"
     inkscape:cx="-5.1864407"
     inkscape:cy="12.991017"
     inkscape:window-x="0"
     inkscape:window-y="28"
     inkscape:window-maximized="1"
     inkscape:current-layer="svg2">
    <inkscape:grid
       type="xygrid"
       id="grid3761"
       empspacing="5"
       visible="true"
       enabled="true"
       snapvisiblegridlinesonly="true" />
  </sodipodi:namedview>
  <metadata
     id="metadata7">
    <rdf:RDF>
      <cc:Work
         rdf:about="">
        <dc:format>image/svg+xml</dc:format>
        <dc:type
           rdf:resource="http://purl.org/dc/dcmitype/StillImage" />
        <dc:title></dc:title>
      </cc:Work>
    </rdf:RDF>
  </metadata>
  <path
     id="path3769"
     d="m 11,4 c -4.4182781,0 -8,3.5817219 -8,8 0,4.418278 3.5817219,8 8,8 4.418278,0 8,-3.581722 8,-8 C 19,7.5817219 15.418278,4 11,4 z M 9.8125,8.75 c 0.135627,-0.00214 0.272993,-0.00142 0.40625,0 3.198194,0.034864 5.6875,1.09375 5.6875,1.09375 0.324,0.13711 0.478815,0.54609 0.34375,0.875 -0.135065,0.328908 -0.550997,0.512111 -0.875,0.375 0,0 -4.057279,-1.705408 -8.1875,-0.65625 C 6.8397067,10.553353 6.401618,10.32915 6.3125,9.96875 6.2233825,9.608347 6.4832892,9.189628 6.84375,9.125 7.861975,8.86635 8.8631096,8.7658217 9.8125,8.75 z m 0.15625,2.4375 c 0.119867,-7.16e-4 0.226846,-0.0028 0.34375,0 2.805654,0.06484 4.75,1.09375 4.75,1.09375 0.248871,0.130769 0.347561,0.466125 0.21875,0.71875 -0.128814,0.252593 -0.469896,0.380768 -0.71875,0.25 0,0 -3.091318,-1.653681 -7.0625,-0.6875 -0.2791176,0.08749 -0.588383,-0.08656 -0.65625,-0.375 -0.067868,-0.288431 0.1495642,-0.60624 0.4375,-0.65625 0.9541926,-0.232148 1.848421,-0.33875 2.6875,-0.34375 z m -0.0625,2.28125 c 0.105206,4e-4 0.210394,0.02765 0.3125,0.03125 2.450583,0.08332 4,1 4,1 0.200217,0.09598 0.298596,0.368085 0.1875,0.5625 -0.111097,0.194414 -0.412285,0.253775 -0.59375,0.125 0,0 -2.478782,-1.482136 -6.15625,-0.65625 C 7.4451749,14.59829 7.205058,14.46898 7.15625,14.25 7.107439,14.031014 7.2810533,13.78172 7.5,13.75 8.3647217,13.555799 9.169811,13.46515 9.90625,13.46875 z"
     style="opacity:0.2;color:#000000;fill:#000000;fill-opacity:1;fill-rule:nonzero;stroke:none;stroke-width:2;marker:none;visibility:visible;display:inline;overflow:visible;enable-background:accumulate"
     inkscape:connector-curvature="0" />
  <path
     style="color:#000000;fill:#ffffff;fill-opacity:1;fill-rule:nonzero;stroke:none;stroke-width:2;marker:none;visibility:visible;display:inline;overflow:visible;enable-background:accumulate"
     d="m 11,3 c -4.4182781,0 -8,3.5817219 -8,8 0,4.418278 3.5817219,8 8,8 4.418278,0 8,-3.581722 8,-8 C 19,6.5817219 15.418278,3 11,3 z M 9.8125,7.75 c 0.135627,-0.00214 0.272993,-0.00142 0.40625,0 3.198194,0.034864 5.6875,1.09375 5.6875,1.09375 0.324,0.1371099 0.478815,0.54609 0.34375,0.875 -0.135065,0.328908 -0.550997,0.512111 -0.875,0.375 0,0 -4.057279,-1.7054082 -8.1875,-0.65625 C 6.8397067,9.553353 6.401618,9.32915 6.3125,8.96875 6.2233825,8.6083467 6.4832892,8.1896283 6.84375,8.125 7.861975,7.86635 8.8631096,7.7658217 9.8125,7.75 z m 0.15625,2.4375 c 0.119867,-7.16e-4 0.226846,-0.0028 0.34375,0 2.805654,0.06484 4.75,1.09375 4.75,1.09375 0.248871,0.130769 0.347561,0.466125 0.21875,0.71875 -0.128814,0.252593 -0.469896,0.380768 -0.71875,0.25 0,0 -3.091318,-1.653681 -7.0625,-0.6875 -0.2791176,0.08749 -0.588383,-0.08656 -0.65625,-0.375 -0.067868,-0.288431 0.1495642,-0.60624 0.4375,-0.65625 0.9541926,-0.232148 1.848421,-0.33875 2.6875,-0.34375 z m -0.0625,2.28125 c 0.105206,4e-4 0.210394,0.02765 0.3125,0.03125 2.450583,0.08332 4,1 4,1 0.200217,0.09598 0.298596,0.368085 0.1875,0.5625 -0.111097,0.194414 -0.412285,0.253775 -0.59375,0.125 0,0 -2.478782,-1.482136 -6.15625,-0.65625 C 7.4451749,13.59829 7.205058,13.46898 7.15625,13.25 7.107439,13.031014 7.2810533,12.78172 7.5,12.75 8.3647217,12.555799 9.169811,12.46515 9.90625,12.46875 z"
     id="path3763"
     inkscape:connector-curvature="0" />
</svg>

<svg xmlns="http://www.w3.org/2000/svg" viewBox="0 0 22 22"><g color="#000"><path d="m11 4c-4.418 0-8 3.582-8 8 0 4.418 3.582 8 8 8 4.418 0 8-3.582 8-8 0-4.418-3.582-8-8-8m-1.188 4.75c.136-.002.273-.001.406 0 3.198.035 5.688 1.094 5.688 1.094.324.137.479.546.344.875-.135.329-.551.512-.875.375 0 0-4.057-1.705-8.188-.656-.348.116-.786-.108-.875-.469-.089-.36.171-.779.531-.844 1.018-.259 2.02-.359 2.969-.375m.156 2.438c.12-.001.227-.003.344 0 2.806.065 4.75 1.094 4.75 1.094.249.131.348.466.219.719-.129.253-.47.381-.719.25 0 0-3.091-1.654-7.06-.688-.279.087-.588-.087-.656-.375-.068-.288.15-.606.438-.656.954-.232 1.848-.339 2.688-.344m-.063 2.281c.105 0 .21.028.313.031 2.451.083 4 1 4 1 .2.096.299.368.188.563-.111.194-.412.254-.594.125 0 0-2.479-1.482-6.156-.656-.211.067-.451-.062-.5-.281-.049-.219.125-.468.344-.5.865-.194 1.67-.285 2.406-.281" opacity=".2"/><path d="m11 3c-4.418 0-8 3.582-8 8 0 4.418 3.582 8 8 8 4.418 0 8-3.582 8-8 0-4.418-3.582-8-8-8m-1.188 4.75c.136-.002.273-.001.406 0 3.198.035 5.688 1.094 5.688 1.094.324.137.479.546.344.875-.135.329-.551.512-.875.375 0 0-4.057-1.705-8.188-.656-.348.116-.786-.108-.875-.469-.089-.36.171-.779.531-.844 1.018-.259 2.02-.359 2.969-.375m.156 2.438c.12-.001.227-.003.344 0 2.806.065 4.75 1.094 4.75 1.094.249.131.348.466.219.719-.129.253-.47.381-.719.25 0 0-3.091-1.654-7.06-.688-.279.087-.588-.087-.656-.375-.068-.288.15-.606.438-.656.954-.232 1.848-.339 2.688-.344m-.063 2.281c.105 0 .21.028.313.031 2.451.083 4 1 4 1 .2.096.299.368.188.563-.111.194-.412.254-.594.125 0 0-2.479-1.482-6.156-.656-.211.067-.451-.062-.5-.281-.049-.219.125-.468.344-.5.865-.194 1.67-.285 2.406-.281" fill="#fff"/></g></svg>
